!!!OTL: Wanderlied.
!!!ARE: Europa, Mitteleuropa, Deutschland
!!!SCT: A0260
!!!TXL: @@GMH
!!!YEM: Copyright 1995, estate of Helmut Schaffrath.
**kern	**text
!! Mixed meters:  4/2; 6/2
*M4/2	*
*met(c|)	*
*clefC4	*
*k[b-]	*
*F:	*
=1	=1
1ryy	.
2ryy	.
{2F	Woll
=2	=2
2F	auff,
2c	gut
2A	gſell
2F	von
=3	=3
1G	hin-
2A/}	-nen
{2A/	meins
=4	=4
1d	ble-
2c	-bens
2c	iſt
=5	=5
!LO:TX:a:t=P:no clear beginning og ligature:problem	!
*lig	*
2B-	hier
2A	.
*Xlig	*
1G	nit
=6	=6
1F	mee,
2r}	.
{2F	Der
=7	=7
2F	mey
2c	der
2A	thut
2F	uns
=8	=8
1G	bring-
2A/}	-gen
{2A/	den
=9	=9
1d	fey-
2c	el
2c	vnd
=10	=10
!LO:TX:a:t=P:no clear beginning of ligature:problem	!
*lig	*
2B-	grü-
2A	.
*Xlig	*
1G	-nen
=11	=11
1F	klee,
2r}	.
{2F	Vorm
=12	=12
2A/	walt
2A/	da
2F	hört
2F	man
=13	=13
1G	ſin-
2F}	-gen
{2c	der
=14	=14
*M6/2	*
1A	klei-
2c	-nen
1B-	vög-
2A	-lein
=15	=15
*M4/2	*
1G	gſang
2r}	.
{2c	die
=16	=16
*M6/2	*
2c	ſin-
2c	-gen
2c	mit
1c	hel-
2B-	-ler
=17	=17
*M4/2	*
2A/	ſtim-
4G	.
4F	.
1G	.
=18	=18
1F	me
1r}	.
=19	=19
{2r	.
2F	den
2F	gan-
2G	-tʒen
=20	=20
*lig	*
2B-	ſom-
2A	.
*Xlig	*
1G	-mer
=21	=21
0F/ll}	lang.
==	==
!!!GTL: Abschieds- und Wanderlieder
!!!AGN: Romanze, Ballade, Lied
!! Forster II 1540 No. 18.
!!!ONB: ESAC (Essen Associative Code) Database: ALTDEU
!!!AMT: irregular
!!!AIN: vox
!!!EED: Helmut Schaffrath
!!!EEV: 1.0
!!!RDF**kern: l = terminal long
!!!AMD: Ionian
!!!URL-scan: https://rosdok.uni-rostock.de/mcrviewer/recordIdentifier/rosdok_ppn738218359/iview2/phys_0410.iview2?x=-495.6391625615763&y=243.65911331190728&scale=0.4629418472063854&rotation=0&layout=singlePageLayout&logicalDiv=log_0010
!!!ENC: Anna Maria Matuszewska
!!!EEV: 2024/11/03
*-	*-
